X:1
T:Robin vouloit
T:Claude Goudimel
T:Source : Livre IV de 24 chansons nouvelles à 4 parties---Paris---N.du Chemin---1549. Editor : André Vierendeels (24/02/18) Notes : Original clefs : G2, C2, C3, C4 Original note values have been halved Editorial accidentals above the stave 
T:Robin vouloit
T:©
T:©
T:©
T:©
T:©
C:Claude Goudimel
Z:©
%%score [ 1 2 [ 3 4 ] ]
L:1/8
Q:1/4=120
M:2/2
K:C
V:1 treble nm="Soprano" snm="S"
V:2 treble nm="Alto" snm="A"
V:3 treble-8 nm="Tenor 1" snm="T 1"
V:4 treble-8 nm="Tenor 2" snm="T 2"
V:1
 z2 c2 Be d2 | z cde fedc | B2 c2 z4 | c2 Be dgfe | d2 cA BdcB | AA G2 c2 ee | g3 f ed c2- | %7
w: Ro- bin vou- loit,|Ro- bin vou- loit sa fem- me|bat- tre,|Ro- bin vou- loit sa fem- me|bat- tre, a- vant que mon- ter|à che- val, a- vant que|mon- * ter _ à|
w: Mais en cui- dant,|mais en cui- dant le bas com-|bat- tre,|mais en cui- dant le bas com-|bat- tre, il fit un peu du|des- loy- al, il fit un|peu du des- * loy-|
 c2 B2 c2 c2 | fedc B2 A2- | A2 G4 F2 |1[M:2/4] G4 :|2[M:2/2] G4 z2 G2 || A2 B2 c2 z c | %13
w: _ che- val, a-|vant que mon- ter à che-||val,|* car|il frap- pa, car|
w: * * al, il|fit un peu du des- loy-|||al *||
 deff e2 c2 | B3 g f2 e2- | e2 d2 e4 | z g g2 e4 | g2 fe d2 cc | B2 A2 G3 A | B2 c4 B2 | c4 z2 e2 | %21
w: il frap- pa trop ru- de-|ment, trop ru- *|* de ment,|de sor- te|que de tant pic- quer mou-|rut qua- si su|bi- * te-|ment, voi-|
w: ||||||||
 gfed c2 e2 | d4 z2 e2 | g3 f e2 d2 | c2 e2 dcBA | GGcc B2 A2- | A2 G4 F2 | G8 |] %28
w: là que c'est de tri- que-|ter, voi-|là _ _ que|c'est de tro- que- ter, voi-|là que c'est de tri- que-||ter.|
w: |||||||
V:2
 G2 EA GcBG | A2 Bc AG A2 | GGEA G2 G2 | AF G2 GGAA | Bc A2 G2 z G | FFED E2 C2 | DD G2 z2 C2 | %7
w: Ro- bin vou- loit sa fem- me|bat- tre, sa fem- me bat-|tre, Ro- bin vou- loit sa|fem- me bat- tre, vou- loit sa|fem- me bat- tre, a-|vant que mon- ter à che-|val, a- vant, a-|
w: Mais en cui- dant le bas com-|bat- tre, mais en cui- dant|le bas com- bat- tre, le|bas com- bat- tre, cui- dant le|bas com- bat- tre, il|fit un peu du des- loy-|al, il fit, il|
 G3 F EDCB, | A,A,AA G2 F2- | FEDC D2 D2 |1[M:2/4] D4 :|2[M:2/2] D2 D2 EFGE || F2 D2 C2 z2 | %13
w: vant que mon- ter à che-|val, a- vant que mon- ter|_ _ _ _ à che-|val,|al, car il fra- pa trop|ru- de- ment,|
w: fit un- peu du des- loy-|al, il fit un peu du|_ _ _ _ des loy|_|||
 G2 AB cCEF | GGAB c3 B | c2 B2 G2 G2 | G2 E2 z4 | z C C2 G,G,/G,/CC | D2 D2 B,2 G2 | G2 F2 G2 G2 | %20
w: car il frap- pa trop ru- de-|ment, car il frap- pa trop|ru- de- ment, de|sor- te,|de sor- te que de tant pic-|quer mou- rut qua-|si su- bi- te-|
w: |||||||
 E2 G2 c2 c2 | B2 z G A2 G2 | G2 D2 G3 F | E2 C2 C2 B,2 | C2 G2 G2 G2 | CCEE D2 F2 | D2 E2 D4 | %27
w: ment, voi- là que|c'est, voi- là que|c'est de tri- que-|ter, de tri- que-|ter, de tri- que-|ter, de tri- que- ter, de|tri- * que-|
w: |||||||
 D8 |] %28
w: ter.|
w: |
V:3
 z8 | c2 Be dgfe | d2 cc BedB | c2 dc ddff | g2 c2 z dee | c2 B2 c2 A2 | G2 z d gfee | d2 d2 c4 | %8
w: |Ro- bin vou- loit sa fem- me|bat- tre, Ro- bin vou- loit sa|fem- me bat- tre, sa fem- me|bat- tre, a- vant que|mon- ter à che-|val, a- vant que mon- ter|à che- val,|
w: |Mais en cui- dant le bas com-|bat- tre, mais en cui- dant le|mais en cui- dant le bas com-|bat- tre, il fit un|peu du des- loy-|al, il fit un peu du|des- moy- al,|
 c2 ff d3 d | cBAG A4 |1[M:2/4] G4 :|2[M:2/2] G8 || z2 g2 f2 e2 | d2 z2 z2 c2 | d2 d2 c2 g2 | %15
w: a- vant que mon- ter|à _ _ _ che-|val,|al,|car il frap-|pa, car|il frap- pa trop|
w: il fit un peu du|des- * * * loy|_|||||
 f2 f2 e4 | z2 g2 g2 e2 | z2 z g g2 e2 | gdff eeee | d2 c2 d2 d2 | c2 e2 g2 g2 | edcB A2 c2 | %22
w: ru- de ment,|de sor- te|de sor- te|que de tant pic- quer mou- rut su-|bi- te- ment, voi-|là que c'est de|tri- * * que- ter, de|
w: |||||||
 c2 B2 c4 | z2 e2 g3 f | e2 c2 d2 d2 | e2 c2 dGAA | B2 c2 A2 A2 | G8 |] %28
w: tri- que- ter,|de tri- que-|ter, de tri- que-|ter, voi- là, voi- là que|c'est de tri- que-|ter.|
w: ||||||
V:4
 z4 z2 G2 | FAGC DE F2 | G2 z2 z2 G2 | FAGc BG d2 | GGAF G2 E2 | F2 G2 CC c2- | ccBB c2 c2 | %7
w: Ro-|bin vou- loit sa fem- me bat-|tre; Ro-|bin vou- loit sa fem- me bat-|tre, a- vant que mon- ter|à che- val, a- vant|_ que mon- ter à che-|
w: Mais|en cui- dant le bas com- bat-|tre, mais|en cui- dant le bas com- bat-|tre, il fit un peu du|des loy- al, il fit|_ un peu du des- loy-|
 G2 G2 cBAG | F2 F2 G2 z D | F2 G2 D2 D2 |1[M:2/4] G4 :|2[M:2/2] G4 z2 C2 || FAGG ABcC | %13
w: val, a- vant que mon- ter|à che- val, que|mon- ter à che-|val,|al, car|il frap- pa trop ru- de- ment, car|
w: al, il fit un peu de|des- loy- al, un|peu de des loy-||||
 GGFF A2 A2 | G2 z G ABcG | A2 B2 c4- | c4 z2 c2 | c2 Ac B2 A2 | G2 FD E2 C2 | G2 A2 G2 G2 | %20
w: il frap- pa trop ru- de-|ment, car il frap- pa trop|ru- de- ment,|_ de|sor- te que de tant|pis- quer mou- rut qua-|si su- bi- te-|
w: |||||||
 C2 c2 c2 c2 | G2 z G c2 C2 | G2 G2 C2 c2 |"^#" c4 z2 G2 | c2 c2 G4 | z2 C2 G2 F2 | G2 C2 D2 D2 | %27
w: ment, voi- là que-|c'est voi- là que|c'est, voi- là que|c'est de|tri- que- ter,|voi- là que|c'est de tri- que-|
w: |||||||
 G8 |] %28
w: ter.|
w: |

